public/phone.svg

<svg width="20" height="20" viewBox="0 0 20 20" fill="none" xmlns="http://www.w3.org/2000/svg">
<path d="M12.5418 4.16683C13.3557 4.32563 14.1038 4.72371 14.6902 5.31011C15.2766 5.89651 15.6746 6.64455 15.8334 7.4585L12.5418 4.16683ZM12.5418 0.833496C14.2328 1.02136 15.8098 1.77864 17.0136 2.981C18.2175 4.18336 18.9768 5.75934 19.1668 7.45016L12.5418 0.833496ZM18.3334 14.1002V16.6002C18.3344 16.8322 18.2868 17.062 18.1939 17.2746C18.1009 17.4873 17.9645 17.6782 17.7935 17.835C17.6225 17.9919 17.4206 18.1114 17.2007 18.1858C16.9809 18.2601 16.7479 18.2877 16.5168 18.2668C13.9525 17.9882 11.4893 17.1119 9.32511 15.7085C7.31163 14.429 5.60455 12.722 4.32511 10.7085C2.91676 8.5345 2.04031 6.05932 1.76677 3.4835C1.74595 3.25305 1.77334 3.0208 1.84719 2.80152C1.92105 2.58224 2.03975 2.38074 2.19575 2.20985C2.35174 2.03896 2.54161 1.90242 2.75327 1.80893C2.96492 1.71544 3.19372 1.66705 3.42511 1.66683H5.92511C6.32953 1.66285 6.7216 1.80606 7.02824 2.06977C7.33488 2.33349 7.53517 2.6997 7.59177 3.10016C7.69729 3.90022 7.89298 4.68577 8.17511 5.44183C8.28723 5.7401 8.31149 6.06426 8.24503 6.3759C8.17857 6.68753 8.02416 6.97359 7.80011 7.20016L6.74177 8.2585C7.92807 10.3448 9.65549 12.0722 11.7418 13.2585L12.8001 12.2002C13.0267 11.9761 13.3127 11.8217 13.6244 11.7552C13.936 11.6888 14.2602 11.713 14.5584 11.8252C15.3145 12.1073 16.1001 12.303 16.9001 12.4085C17.3049 12.4656 17.6746 12.6695 17.9389 12.9814C18.2032 13.2933 18.3436 13.6915 18.3334 14.1002Z" stroke="white" stroke-linecap="round" stroke-linejoin="round"/>
</svg>

<svg xmlns="http://www.w3.org/2000/svg" width="20" height="20" fill="none"><path stroke="#fff" stroke-linecap="round" stroke-linejoin="round" d="M12.542 4.167a4.17 4.17 0 0 1 3.291 3.292zm0-3.334a7.5 7.5 0 0 1 6.625 6.617zM18.333 14.1v2.5a1.667 1.667 0 0 1-1.816 1.667 16.5 16.5 0 0 1-7.192-2.558 16.25 16.25 0 0 1-5-5 16.5 16.5 0 0 1-2.558-7.225 1.667 1.667 0 0 1 1.658-1.817h2.5A1.67 1.67 0 0 1 7.592 3.1c.105.8.301 1.586.583 2.342A1.67 1.67 0 0 1 7.8 7.2L6.742 8.258a13.33 13.33 0 0 0 5 5L12.8 12.2a1.67 1.67 0 0 1 1.758-.375c.757.282 1.542.478 2.342.584a1.667 1.667 0 0 1 1.433 1.691"/></svg>
